X:717
M:C|
L:1/8
K:C Minor
|:G|cdeg cgeg|Bcde fbdB|1 cdef gcec|dBfd c/c/c c:|2 gfed edcB|GBFD C/C/C c||

